images/16757953.svg

<?xml version="1.0" encoding="UTF-8"?>
<svg xmlns="http://www.w3.org/2000/svg" xmlns:xlink="http://www.w3.org/1999/xlink" width="300pt" height="300pt" viewBox="0 0 300 300" version="1.1">
<defs>
<g>
<symbol overflow="visible" id="glyph0-0">
<path style="stroke:none;" d="M 0.546875 1.9375 L 0.546875 -7.75 L 6.046875 -7.75 L 6.046875 1.9375 Z M 1.171875 1.328125 L 5.4375 1.328125 L 5.4375 -7.140625 L 1.171875 -7.140625 Z M 1.171875 1.328125 "/>
</symbol>
<symbol overflow="visible" id="glyph0-1">
<path style="stroke:none;" d="M 4.328125 -7.28125 C 3.546875 -7.28125 2.921875 -6.984375 2.453125 -6.390625 C 1.992188 -5.804688 1.765625 -5.007812 1.765625 -4 C 1.765625 -2.988281 1.992188 -2.1875 2.453125 -1.59375 C 2.921875 -1.007812 3.546875 -0.71875 4.328125 -0.71875 C 5.117188 -0.71875 5.742188 -1.007812 6.203125 -1.59375 C 6.660156 -2.1875 6.890625 -2.988281 6.890625 -4 C 6.890625 -5.007812 6.660156 -5.804688 6.203125 -6.390625 C 5.742188 -6.984375 5.117188 -7.28125 4.328125 -7.28125 Z M 4.328125 -8.171875 C 5.453125 -8.171875 6.351562 -7.789062 7.03125 -7.03125 C 7.707031 -6.28125 8.046875 -5.269531 8.046875 -4 C 8.046875 -2.738281 7.707031 -1.726562 7.03125 -0.96875 C 6.351562 -0.21875 5.453125 0.15625 4.328125 0.15625 C 3.203125 0.15625 2.300781 -0.21875 1.625 -0.96875 C 0.957031 -1.71875 0.625 -2.726562 0.625 -4 C 0.625 -5.269531 0.957031 -6.28125 1.625 -7.03125 C 2.300781 -7.789062 3.203125 -8.171875 4.328125 -8.171875 Z M 4.328125 -8.171875 "/>
</symbol>
<symbol overflow="visible" id="glyph0-2">
<path style="stroke:none;" d="M 1.078125 -8.015625 L 2.171875 -8.015625 L 2.171875 -4.734375 L 6.109375 -4.734375 L 6.109375 -8.015625 L 7.1875 -8.015625 L 7.1875 0 L 6.109375 0 L 6.109375 -3.8125 L 2.171875 -3.8125 L 2.171875 0 L 1.078125 0 Z M 1.078125 -8.015625 "/>
</symbol>
</g>
</defs>
<g id="surface30917">
<rect x="0" y="0" width="300" height="300" style="fill:rgb(100%,100%,100%);fill-opacity:1;stroke:none;"/>
<path style="fill:none;stroke-width:1.2;stroke-linecap:butt;stroke-linejoin:miter;stroke:rgb(0%,0%,0%);stroke-opacity:1;stroke-miterlimit:10;" d="M 184.285156 74.910156 L 190.46875 99.941406 "/>
<path style="fill:none;stroke-width:1.2;stroke-linecap:butt;stroke-linejoin:miter;stroke:rgb(0%,0%,0%);stroke-opacity:1;stroke-miterlimit:10;" d="M 189.628906 102.855469 L 202.011719 106.433594 "/>
<path style="fill:none;stroke-width:1.2;stroke-linecap:butt;stroke-linejoin:miter;stroke:rgb(100%,0%,0%);stroke-opacity:1;stroke-miterlimit:10;" d="M 202.011719 106.433594 L 214.398438 110.011719 "/>
<path style="fill:none;stroke-width:1.2;stroke-linecap:butt;stroke-linejoin:miter;stroke:rgb(0%,0%,0%);stroke-opacity:1;stroke-miterlimit:10;" d="M 191.3125 97.027344 L 203.699219 100.605469 "/>
<path style="fill:none;stroke-width:1.2;stroke-linecap:butt;stroke-linejoin:miter;stroke:rgb(100%,0%,0%);stroke-opacity:1;stroke-miterlimit:10;" d="M 203.699219 100.605469 L 216.082031 104.183594 "/>
<path style="fill:none;stroke-width:1.2;stroke-linecap:butt;stroke-linejoin:miter;stroke:rgb(0%,0%,0%);stroke-opacity:1;stroke-miterlimit:10;" d="M 190.46875 99.941406 L 181.179688 108.875 "/>
<path style="fill:none;stroke-width:1.2;stroke-linecap:butt;stroke-linejoin:miter;stroke:rgb(100%,0%,0%);stroke-opacity:1;stroke-miterlimit:10;" d="M 181.179688 108.875 L 171.886719 117.8125 "/>
<path style=" stroke:none;fill-rule:nonzero;fill:rgb(100%,100%,100%);fill-opacity:1;" d="M 211.238281 100.597656 L 220.238281 100.597656 L 220.238281 113.597656 L 211.238281 113.597656 Z M 211.238281 100.597656 "/>
<g style="fill:rgb(100%,0%,0%);fill-opacity:1;">
  <use xlink:href="#glyph0-1" x="211.238281" y="110.499023"/>
</g>
<path style="fill:none;stroke-width:1.2;stroke-linecap:butt;stroke-linejoin:miter;stroke:rgb(100%,0%,0%);stroke-opacity:1;stroke-miterlimit:10;" d="M 171.886719 117.8125 L 174.980469 130.328125 "/>
<path style="fill:none;stroke-width:1.2;stroke-linecap:butt;stroke-linejoin:miter;stroke:rgb(0%,0%,0%);stroke-opacity:1;stroke-miterlimit:10;" d="M 174.980469 130.328125 L 178.070312 142.84375 "/>
<path style=" stroke:none;fill-rule:nonzero;fill:rgb(100%,100%,100%);fill-opacity:1;" d="M 167.886719 111.3125 L 176.886719 111.3125 L 176.886719 124.3125 L 167.886719 124.3125 Z M 167.886719 111.3125 "/>
<g style="fill:rgb(100%,0%,0%);fill-opacity:1;">
  <use xlink:href="#glyph0-1" x="167.886719" y="121.213867"/>
</g>
<path style="fill:none;stroke-width:1.2;stroke-linecap:butt;stroke-linejoin:miter;stroke:rgb(0%,0%,0%);stroke-opacity:1;stroke-miterlimit:10;" d="M 178.070312 142.84375 L 202.839844 150 "/>
<path style="fill:none;stroke-width:1.2;stroke-linecap:butt;stroke-linejoin:miter;stroke:rgb(0%,0%,0%);stroke-opacity:1;stroke-miterlimit:10;" d="M 159.488281 160.714844 L 178.070312 142.84375 "/>
<path style="fill:none;stroke-width:1.2;stroke-linecap:butt;stroke-linejoin:miter;stroke:rgb(0%,0%,0%);stroke-opacity:1;stroke-miterlimit:10;" d="M 202.839844 150 L 209.027344 175.03125 "/>
<path style="fill:none;stroke-width:1.2;stroke-linecap:butt;stroke-linejoin:miter;stroke:rgb(0%,0%,0%);stroke-opacity:1;stroke-miterlimit:10;" d="M 209.027344 175.03125 L 190.441406 192.902344 "/>
<path style="fill:none;stroke-width:1.2;stroke-linecap:butt;stroke-linejoin:miter;stroke:rgb(0%,0%,0%);stroke-opacity:1;stroke-miterlimit:10;" d="M 233.796875 182.1875 L 209.027344 175.03125 "/>
<path style="fill:none;stroke-width:1.2;stroke-linecap:butt;stroke-linejoin:miter;stroke:rgb(0%,0%,0%);stroke-opacity:1;stroke-miterlimit:10;" d="M 190.441406 192.902344 L 196.628906 217.929688 "/>
<path style="fill:none;stroke-width:1.2;stroke-linecap:butt;stroke-linejoin:miter;stroke:rgb(0%,0%,0%);stroke-opacity:1;stroke-miterlimit:10;" d="M 190.441406 192.902344 L 165.675781 185.742188 "/>
<path style="fill:none;stroke-width:1;stroke-linecap:butt;stroke-linejoin:miter;stroke:rgb(0%,0%,0%);stroke-opacity:1;stroke-miterlimit:10;" d="M 190.441406 192.902344 L 190.441406 192.902344 M 187.953125 194.574219 L 188.675781 195.324219 M 185.460938 196.246094 L 186.90625 197.75 M 182.96875 197.917969 L 185.140625 200.171875 M 180.480469 199.589844 L 183.371094 202.597656 M 177.988281 201.261719 L 181.601562 205.019531 M 175.496094 202.933594 L 179.835938 207.441406 M 173.007812 204.605469 L 178.066406 209.867188 M 170.515625 206.277344 L 176.296875 212.289062 M 168.707031 207.492188 L 175.011719 214.050781 "/>
<path style="fill:none;stroke-width:1.2;stroke-linecap:butt;stroke-linejoin:miter;stroke:rgb(0%,0%,0%);stroke-opacity:1;stroke-miterlimit:10;" d="M 196.628906 217.929688 L 221.398438 225.089844 "/>
<path style="fill:none;stroke-width:1.2;stroke-linecap:butt;stroke-linejoin:miter;stroke:rgb(0%,0%,0%);stroke-opacity:1;stroke-miterlimit:10;" d="M 200.789062 212.820312 L 220.605469 218.546875 "/>
<path style="fill:none;stroke-width:1.2;stroke-linecap:butt;stroke-linejoin:miter;stroke:rgb(0%,0%,0%);stroke-opacity:1;stroke-miterlimit:10;" d="M 221.398438 225.089844 L 239.980469 207.21875 "/>
<path style="fill:none;stroke-width:1.2;stroke-linecap:butt;stroke-linejoin:miter;stroke:rgb(0%,0%,0%);stroke-opacity:1;stroke-miterlimit:10;" d="M 239.980469 207.21875 L 233.796875 182.1875 "/>
<path style="fill:none;stroke-width:1.2;stroke-linecap:butt;stroke-linejoin:miter;stroke:rgb(0%,0%,0%);stroke-opacity:1;stroke-miterlimit:10;" d="M 239.980469 207.21875 L 252.367188 210.796875 "/>
<path style="fill:none;stroke-width:1.2;stroke-linecap:butt;stroke-linejoin:miter;stroke:rgb(100%,0%,0%);stroke-opacity:1;stroke-miterlimit:10;" d="M 252.367188 210.796875 L 264.75 214.375 "/>
<path style="fill:none;stroke-width:1.2;stroke-linecap:butt;stroke-linejoin:miter;stroke:rgb(0%,0%,0%);stroke-opacity:1;stroke-miterlimit:10;" d="M 233.796875 182.1875 L 236.542969 156.550781 "/>
<path style="fill:none;stroke-width:1.2;stroke-linecap:butt;stroke-linejoin:miter;stroke:rgb(0%,0%,0%);stroke-opacity:1;stroke-miterlimit:10;" d="M 233.796875 182.1875 L 259.519531 180.441406 "/>
<path style=" stroke:none;fill-rule:nonzero;fill:rgb(100%,100%,100%);fill-opacity:1;" d="M 256.75 207.875 L 273.75 207.875 L 273.75 220.875 L 256.75 220.875 Z M 256.75 207.875 "/>
<g style="fill:rgb(100%,0%,0%);fill-opacity:1;">
  <use xlink:href="#glyph0-1" x="256.75" y="217.776367"/>
  <use xlink:href="#glyph0-2" x="265.150391" y="217.776367"/>
</g>
<path style="fill:none;stroke-width:1.2;stroke-linecap:butt;stroke-linejoin:miter;stroke:rgb(0%,0%,0%);stroke-opacity:1;stroke-miterlimit:10;" d="M 165.675781 185.742188 L 159.488281 160.714844 "/>
<path style="fill:none;stroke-width:1.2;stroke-linecap:butt;stroke-linejoin:miter;stroke:rgb(0%,0%,0%);stroke-opacity:1;stroke-miterlimit:10;" d="M 147.089844 203.613281 L 165.675781 185.742188 "/>
<path style="fill:none;stroke-width:1.2;stroke-linecap:butt;stroke-linejoin:miter;stroke:rgb(0%,0%,0%);stroke-opacity:1;stroke-miterlimit:10;" d="M 159.488281 160.714844 L 134.71875 153.554688 "/>
<path style=" stroke:none;fill-rule:nonzero;fill:rgb(0%,0%,0%);fill-opacity:1;" d="M 159.488281 160.714844 L 157.71875 134.59375 L 148.886719 136.773438 Z M 159.488281 160.714844 "/>
<path style="fill:none;stroke-width:1.2;stroke-linecap:butt;stroke-linejoin:miter;stroke:rgb(0%,0%,0%);stroke-opacity:1;stroke-miterlimit:10;" d="M 134.71875 153.554688 L 128.535156 128.527344 "/>
<path style="fill:none;stroke-width:1.2;stroke-linecap:butt;stroke-linejoin:miter;stroke:rgb(0%,0%,0%);stroke-opacity:1;stroke-miterlimit:10;" d="M 128.210938 152.507812 L 123.261719 132.484375 "/>
<path style="fill:none;stroke-width:1.2;stroke-linecap:butt;stroke-linejoin:miter;stroke:rgb(0%,0%,0%);stroke-opacity:1;stroke-miterlimit:10;" d="M 116.136719 171.425781 L 134.71875 153.554688 "/>
<path style="fill:none;stroke-width:1.2;stroke-linecap:butt;stroke-linejoin:miter;stroke:rgb(0%,0%,0%);stroke-opacity:1;stroke-miterlimit:10;" d="M 128.535156 128.527344 L 103.765625 121.367188 "/>
<path style="fill:none;stroke-width:1.2;stroke-linecap:butt;stroke-linejoin:miter;stroke:rgb(0%,0%,0%);stroke-opacity:1;stroke-miterlimit:10;" d="M 106.710938 120.640625 L 103.617188 108.125 "/>
<path style="fill:none;stroke-width:1.2;stroke-linecap:butt;stroke-linejoin:miter;stroke:rgb(100%,0%,0%);stroke-opacity:1;stroke-miterlimit:10;" d="M 103.617188 108.125 L 100.523438 95.609375 "/>
<path style="fill:none;stroke-width:1.2;stroke-linecap:butt;stroke-linejoin:miter;stroke:rgb(0%,0%,0%);stroke-opacity:1;stroke-miterlimit:10;" d="M 100.820312 122.09375 L 97.726562 109.578125 "/>
<path style="fill:none;stroke-width:1.2;stroke-linecap:butt;stroke-linejoin:miter;stroke:rgb(100%,0%,0%);stroke-opacity:1;stroke-miterlimit:10;" d="M 97.726562 109.578125 L 94.636719 97.066406 "/>
<path style="fill:none;stroke-width:1.2;stroke-linecap:butt;stroke-linejoin:miter;stroke:rgb(0%,0%,0%);stroke-opacity:1;stroke-miterlimit:10;" d="M 103.765625 121.367188 L 94.472656 130.304688 "/>
<path style="fill:none;stroke-width:1.2;stroke-linecap:butt;stroke-linejoin:miter;stroke:rgb(100%,0%,0%);stroke-opacity:1;stroke-miterlimit:10;" d="M 94.472656 130.304688 L 85.179688 139.238281 "/>
<path style=" stroke:none;fill-rule:nonzero;fill:rgb(100%,100%,100%);fill-opacity:1;" d="M 93.578125 89.835938 L 102.578125 89.835938 L 102.578125 102.835938 L 93.578125 102.835938 Z M 93.578125 89.835938 "/>
<g style="fill:rgb(100%,0%,0%);fill-opacity:1;">
  <use xlink:href="#glyph0-1" x="93.578125" y="99.737305"/>
</g>
<path style="fill:none;stroke-width:1.2;stroke-linecap:butt;stroke-linejoin:miter;stroke:rgb(100%,0%,0%);stroke-opacity:1;stroke-miterlimit:10;" d="M 85.179688 139.238281 L 88.273438 151.753906 "/>
<path style="fill:none;stroke-width:1.2;stroke-linecap:butt;stroke-linejoin:miter;stroke:rgb(0%,0%,0%);stroke-opacity:1;stroke-miterlimit:10;" d="M 88.273438 151.753906 L 91.367188 164.269531 "/>
<path style=" stroke:none;fill-rule:nonzero;fill:rgb(100%,100%,100%);fill-opacity:1;" d="M 81.179688 132.738281 L 90.179688 132.738281 L 90.179688 145.738281 L 81.179688 145.738281 Z M 81.179688 132.738281 "/>
<g style="fill:rgb(100%,0%,0%);fill-opacity:1;">
  <use xlink:href="#glyph0-1" x="81.179688" y="142.639648"/>
</g>
<path style="fill:none;stroke-width:1.2;stroke-linecap:butt;stroke-linejoin:miter;stroke:rgb(0%,0%,0%);stroke-opacity:1;stroke-miterlimit:10;" d="M 91.367188 164.269531 L 116.136719 171.425781 "/>
<path style="fill:none;stroke-width:1.2;stroke-linecap:butt;stroke-linejoin:miter;stroke:rgb(0%,0%,0%);stroke-opacity:1;stroke-miterlimit:10;" d="M 91.367188 164.269531 L 72.78125 182.140625 "/>
<path style="fill:none;stroke-width:1.2;stroke-linecap:butt;stroke-linejoin:miter;stroke:rgb(0%,0%,0%);stroke-opacity:1;stroke-miterlimit:10;" d="M 116.136719 171.425781 L 122.320312 196.457031 "/>
<path style="fill:none;stroke-width:1;stroke-linecap:butt;stroke-linejoin:miter;stroke:rgb(0%,0%,0%);stroke-opacity:1;stroke-miterlimit:10;" d="M 116.136719 171.425781 L 116.136719 171.425781 M 113.644531 173.097656 L 114.367188 173.851562 M 111.152344 174.769531 L 112.601562 176.273438 M 108.664062 176.441406 L 110.832031 178.699219 M 106.171875 178.113281 L 109.0625 181.121094 M 103.683594 179.785156 L 107.296875 183.542969 M 101.191406 181.457031 L 105.527344 185.96875 M 98.699219 183.132812 L 103.757812 188.390625 M 96.210938 184.804688 L 101.992188 190.816406 M 94.398438 186.019531 L 100.707031 192.578125 "/>
<path style="fill:none;stroke-width:1.2;stroke-linecap:butt;stroke-linejoin:miter;stroke:rgb(0%,0%,0%);stroke-opacity:1;stroke-miterlimit:10;" d="M 122.320312 196.457031 L 147.089844 203.613281 "/>
<path style="fill:none;stroke-width:1.2;stroke-linecap:butt;stroke-linejoin:miter;stroke:rgb(0%,0%,0%);stroke-opacity:1;stroke-miterlimit:10;" d="M 72.78125 182.140625 L 76.316406 207.679688 "/>
<path style="fill:none;stroke-width:1.2;stroke-linecap:butt;stroke-linejoin:miter;stroke:rgb(0%,0%,0%);stroke-opacity:1;stroke-miterlimit:10;" d="M 67.128906 185.527344 L 69.957031 205.957031 "/>
<path style="fill:none;stroke-width:1.2;stroke-linecap:butt;stroke-linejoin:miter;stroke:rgb(0%,0%,0%);stroke-opacity:1;stroke-miterlimit:10;" d="M 47.402344 177.609375 L 72.78125 182.140625 "/>
<path style="fill:none;stroke-width:1.2;stroke-linecap:butt;stroke-linejoin:miter;stroke:rgb(0%,0%,0%);stroke-opacity:1;stroke-miterlimit:10;" d="M 76.316406 207.679688 L 64.71875 213.304688 "/>
<path style="fill:none;stroke-width:1.2;stroke-linecap:butt;stroke-linejoin:miter;stroke:rgb(100%,0%,0%);stroke-opacity:1;stroke-miterlimit:10;" d="M 64.71875 213.304688 L 53.121094 218.933594 "/>
<path style="fill:none;stroke-width:1.2;stroke-linecap:butt;stroke-linejoin:miter;stroke:rgb(100%,0%,0%);stroke-opacity:1;stroke-miterlimit:10;" d="M 53.121094 218.933594 L 44.1875 209.640625 "/>
<path style="fill:none;stroke-width:1.2;stroke-linecap:butt;stroke-linejoin:miter;stroke:rgb(0%,0%,0%);stroke-opacity:1;stroke-miterlimit:10;" d="M 44.1875 209.640625 L 35.25 200.347656 "/>
<path style=" stroke:none;fill-rule:nonzero;fill:rgb(100%,100%,100%);fill-opacity:1;" d="M 49.121094 212.433594 L 58.121094 212.433594 L 58.121094 225.433594 L 49.121094 225.433594 Z M 49.121094 212.433594 "/>
<g style="fill:rgb(100%,0%,0%);fill-opacity:1;">
  <use xlink:href="#glyph0-1" x="49.121094" y="222.334961"/>
</g>
<path style="fill:none;stroke-width:1.2;stroke-linecap:butt;stroke-linejoin:miter;stroke:rgb(0%,0%,0%);stroke-opacity:1;stroke-miterlimit:10;" d="M 35.25 200.347656 L 47.402344 177.609375 "/>
<path style="fill:none;stroke-width:1.2;stroke-linecap:butt;stroke-linejoin:miter;stroke:rgb(0%,0%,0%);stroke-opacity:1;stroke-miterlimit:10;" d="M 41.816406 200.933594 L 51.535156 182.742188 "/>
</g>
</svg>

<svg xmlns="http://www.w3.org/2000/svg" xmlns:xlink="http://www.w3.org/1999/xlink" width="300pt" height="300pt" viewBox="0 0 300 300"><defs><symbol overflow="visible"><path d="M.547 1.938V-7.75h5.5v9.688zm.625-.61h4.266v-8.47H1.171zm0 0"/></symbol><symbol overflow="visible" id="a"><path d="M4.328-7.28c-.78 0-1.406.296-1.875.89-.46.585-.687 1.382-.687 2.39 0 1.012.226 1.813.687 2.406.47.586 1.094.875 1.875.875.79 0 1.414-.288 1.875-.874.457-.593.688-1.394.688-2.406 0-1.008-.23-1.805-.687-2.39-.46-.594-1.086-.89-1.875-.89zm0-.892c1.125 0 2.024.383 2.703 1.14C7.708-6.28 8.048-5.27 8.048-4c0 1.262-.34 2.273-1.016 3.03C6.353-.22 5.454.157 4.33.157S2.3-.22 1.625-.97c-.668-.75-1-1.757-1-3.03 0-1.27.332-2.28 1-3.03.676-.76 1.578-1.142 2.703-1.142zm0 0"/></symbol><symbol overflow="visible" id="b"><path d="M1.078-8.016h1.094v3.282H6.11v-3.282h1.077V0H6.11v-3.813H2.17V0H1.078zm0 0"/></symbol></defs><g><path fill="#fff" d="M0 0h300v300H0z"/><path d="M184.285 74.91l6.184 25.03M189.63 102.855l12.382 3.58" stroke-width="1.2" stroke="#000" stroke-miterlimit="10" fill="none"/><path d="M202.012 106.434l12.386 3.578" stroke-width="1.2" stroke="#f00" stroke-miterlimit="10" fill="none"/><path d="M191.313 97.027l12.386 3.578" stroke-width="1.2" stroke="#000" stroke-miterlimit="10" fill="none"/><path d="M203.7 100.605l12.382 3.58" stroke-width="1.2" stroke="#f00" stroke-miterlimit="10" fill="none"/><path d="M190.47 99.94l-9.29 8.935" stroke-width="1.2" stroke="#000" stroke-miterlimit="10" fill="none"/><path d="M181.18 108.875l-9.293 8.938" stroke-width="1.2" stroke="#f00" stroke-miterlimit="10" fill="none"/><path d="M211.238 100.598h9v13h-9zm0 0" fill="#fff"/><use xlink:href="#a" x="211.238" y="110.499" fill="#f00"/><path d="M171.887 117.813l3.093 12.515" stroke-width="1.2" stroke="#f00" stroke-miterlimit="10" fill="none"/><path d="M174.98 130.328l3.09 12.516" stroke-width="1.2" stroke="#000" stroke-miterlimit="10" fill="none"/><path d="M167.887 111.313h9v13h-9zm0 0" fill="#fff"/><use xlink:href="#a" x="167.887" y="121.214" fill="#f00"/><path d="M178.07 142.844L202.84 150M159.488 160.715l18.582-17.87M202.84 150l6.187 25.03M209.027 175.03l-18.586 17.872M233.797 182.188l-24.77-7.157M190.44 192.902l6.19 25.028M190.44 192.902l-24.764-7.16" stroke-width="1.2" stroke="#000" stroke-miterlimit="10" fill="none"/><path d="M190.44 192.902m-2.487 1.672l.723.75m-3.215.922l1.446 1.504m-3.937.168l2.17 2.254m-4.66-.582l2.89 3.008m-5.382-1.336l3.614 3.758m-6.106-2.086l4.34 4.507m-6.828-2.835l5.058 5.262m-7.55-3.59l5.78 6.012m-7.59-4.798l6.306 6.56" stroke="#000" stroke-miterlimit="10" fill="none"/><path d="M196.63 217.93l24.768 7.16M200.79 212.82l19.815 5.727M221.398 225.09l18.582-17.87M239.98 207.22l-6.183-25.032M239.98 207.22l12.387 3.577" stroke-width="1.2" stroke="#000" stroke-miterlimit="10" fill="none"/><path d="M252.367 210.797l12.383 3.578" stroke-width="1.2" stroke="#f00" stroke-miterlimit="10" fill="none"/><path d="M233.797 182.188l2.746-25.637M233.797 182.188l25.723-1.747" stroke-width="1.2" stroke="#000" stroke-miterlimit="10" fill="none"/><path d="M256.75 207.875h17v13h-17zm0 0" fill="#fff"/><g fill="#f00"><use xlink:href="#a" x="256.75" y="217.776"/><use xlink:href="#b" x="265.15" y="217.776"/></g><path d="M165.676 185.742l-6.188-25.027M147.09 203.613l18.586-17.87M159.488 160.715l-24.77-7.16" stroke-width="1.2" stroke="#000" stroke-miterlimit="10" fill="none"/><path d="M159.488 160.715l-1.77-26.12-8.83 2.178zm0 0"/><path d="M134.72 153.555l-6.185-25.028M128.21 152.508l-4.948-20.024M116.137 171.426l18.582-17.87M128.535 128.527l-24.77-7.16M106.71 120.64l-3.093-12.515" stroke-width="1.2" stroke="#000" stroke-miterlimit="10" fill="none"/><path d="M103.617 108.125l-3.094-12.516" stroke-width="1.2" stroke="#f00" stroke-miterlimit="10" fill="none"/><path d="M100.82 122.094l-3.093-12.516" stroke-width="1.2" stroke="#000" stroke-miterlimit="10" fill="none"/><path d="M97.727 109.578l-3.09-12.512" stroke-width="1.2" stroke="#f00" stroke-miterlimit="10" fill="none"/><path d="M103.766 121.367l-9.293 8.938" stroke-width="1.2" stroke="#000" stroke-miterlimit="10" fill="none"/><path d="M94.473 130.305l-9.293 8.933" stroke-width="1.2" stroke="#f00" stroke-miterlimit="10" fill="none"/><path d="M93.578 89.836h9v13h-9zm0 0" fill="#fff"/><use xlink:href="#a" x="93.578" y="99.737" fill="#f00"/><path d="M85.18 139.238l3.093 12.516" stroke-width="1.2" stroke="#f00" stroke-miterlimit="10" fill="none"/><path d="M88.273 151.754l3.094 12.516" stroke-width="1.2" stroke="#000" stroke-miterlimit="10" fill="none"/><path d="M81.18 132.738h9v13h-9zm0 0" fill="#fff"/><use xlink:href="#a" x="81.18" y="142.64" fill="#f00"/><path d="M91.367 164.27l24.77 7.156M91.367 164.27L72.78 182.14M116.137 171.426l6.183 25.03" stroke-width="1.2" stroke="#000" stroke-miterlimit="10" fill="none"/><path d="M116.137 171.426m-2.492 1.672l.722.754m-3.215.918l1.45 1.503m-3.938.168l2.168 2.26m-4.66-.587l2.89 3.008m-5.378-1.335l3.613 3.758m-6.106-2.086l4.337 4.512m-6.828-2.837l5.058 5.258m-7.547-3.585l5.782 6.01m-7.594-4.795l6.31 6.558" stroke="#000" stroke-miterlimit="10" fill="none"/><path d="M122.32 196.457l24.77 7.156M72.78 182.14l3.536 25.54M67.13 185.527l2.827 20.43M47.402 177.61l25.38 4.53M76.316 207.68l-11.597 5.625" stroke-width="1.2" stroke="#000" stroke-miterlimit="10" fill="none"/><path d="M64.72 213.305l-11.6 5.63M53.12 218.934l-8.932-9.293" stroke-width="1.2" stroke="#f00" stroke-miterlimit="10" fill="none"/><path d="M44.188 209.64l-8.938-9.292" stroke-width="1.2" stroke="#000" stroke-miterlimit="10" fill="none"/><path d="M49.12 212.434h9v13h-9zm0 0" fill="#fff"/><use xlink:href="#a" x="49.121" y="222.335" fill="#f00"/><path d="M35.25 200.348l12.152-22.74M41.816 200.934l9.72-18.192" stroke-width="1.2" stroke="#000" stroke-miterlimit="10" fill="none"/></g></svg>
